src/static/logos/terminal.svg

<?xml version="1.0" encoding="UTF-8" standalone="no"?>
<svg width="256px" height="210px" viewBox="0 0 256 210" version="1.1" xmlns="http://www.w3.org/2000/svg" xmlns:xlink="http://www.w3.org/1999/xlink" preserveAspectRatio="xMidYMid">
	<g>
		<rect fill="#000000" x="0" y="0" width="256" height="209.342334" rx="5"></rect>
		<path d="M28.2414658,21.7735776 C27.3856638,20.9177756 26.3529412,20.4898746 25.143298,20.4898746 C23.9336548,20.4898746 22.8968177,20.9218901 22.0327869,21.7859209 C21.1810993,22.6376085 20.7490839,23.6744455 20.7490839,24.8840887 C20.7490839,26.0937319 21.1810993,27.1305689 22.0327869,27.9822565 L35.4746384,41.424108 L22.0451302,54.8536162 C21.1810993,55.7176471 20.7490839,56.7544841 20.7367406,57.9641273 C20.7490839,59.1737705 21.1810993,60.2106075 22.0327869,61.0622951 C22.8968177,61.9139826 23.9336548,62.3459981 25.1309547,62.3583414 C26.3529412,62.3583414 27.3897782,61.9263259 28.2538091,61.0622951 L43.1891996,46.1145612 C46.3243973,42.9917068 46.3243973,39.8565092 43.1891996,36.7213115 L28.2414658,21.7735776 L28.2414658,21.7735776 Z M86.7857281,54.8783028 C85.9216972,54.0142719 84.8725169,53.5822565 83.6505304,53.5822565 L83.6505304,53.5760849 L54.8165863,53.5760849 L54.8165863,53.5822565 C53.5945998,53.5822565 52.5577628,54.0142719 51.6937319,54.8783028 C50.8297011,55.7423337 50.3976856,56.7791707 50.3976856,58.0011572 C50.3976856,59.2231437 50.8297011,60.272324 51.6937319,61.1363549 C52.5577628,62.0003857 53.5945998,62.4324012 54.8165863,62.4324012 L54.8165863,62.4262295 L83.6505304,62.4262295 L83.6505304,62.4324012 C84.8725169,62.4324012 85.9216972,62.0003857 86.7857281,61.1363549 C87.6497589,60.272324 88.0817743,59.2231437 88.0817743,58.0011572 C88.0817743,56.7791707 87.6497589,55.7423337 86.7857281,54.8783028 L86.7857281,54.8783028 L86.7857281,54.8783028 Z" fill="#FFFFFF"></path>
	</g>
</svg>

<svg width="256" height="210" xmlns="http://www.w3.org/2000/svg" preserveAspectRatio="xMidYMid"><rect width="256" height="209.342" rx="5"/><path d="M28.241 21.774c-.855-.856-1.888-1.284-3.098-1.284s-2.246.432-3.11 1.296c-.852.852-1.284 1.888-1.284 3.098s.432 2.247 1.284 3.098l13.442 13.442-13.43 13.43c-.864.864-1.296 1.9-1.308 3.11.012 1.21.444 2.247 1.296 3.098.864.852 1.9 1.284 3.098 1.296 1.222 0 2.259-.432 3.123-1.296l14.935-14.947c3.135-3.123 3.135-6.258 0-9.394L28.241 21.774zm58.545 33.104c-.864-.864-1.913-1.296-3.135-1.296v-.006H54.817v.006c-1.222 0-2.26.432-3.123 1.296-.864.864-1.296 1.901-1.296 3.123 0 1.222.432 2.271 1.296 3.135.864.864 1.9 1.296 3.123 1.296v-.006H83.65v.006c1.222 0 2.27-.432 3.135-1.296.864-.864 1.296-1.913 1.296-3.135 0-1.222-.432-2.259-1.296-3.123z" fill="#FFF"/></svg>
